sourses/img/ya.svg

<svg width="48" height="48" viewBox="0 0 48 48" fill="none" xmlns="http://www.w3.org/2000/svg">
<g clip-path="url(#clip0)">
<path d="M41.6842 9.47363H6.3158C3.1765 9.47363 0.631592 12.0185 0.631592 15.1578V32.8421C0.631592 35.9814 3.1765 38.5263 6.3158 38.5263H41.6842C44.8235 38.5263 47.3684 35.9814 47.3684 32.8421V15.1578C47.3684 12.0185 44.8235 9.47363 41.6842 9.47363Z" fill="white"/>
<path d="M41.6842 10.1054C43.0243 10.1054 44.3094 10.6378 45.257 11.5853C46.2045 12.5329 46.7368 13.818 46.7368 15.1581V32.8423C46.7368 34.1823 46.2045 35.4675 45.257 36.415C44.3094 37.3626 43.0243 37.8949 41.6842 37.8949H6.31579C4.97575 37.8949 3.69059 37.3626 2.74304 36.415C1.79549 35.4675 1.26316 34.1823 1.26316 32.8423V15.1581C1.26316 13.818 1.79549 12.5329 2.74304 11.5853C3.69059 10.6378 4.97575 10.1054 6.31579 10.1054H41.6842ZM41.6842 8.84229H6.31579C4.64074 8.84229 3.03429 9.5077 1.84985 10.6921C0.665412 11.8766 0 13.483 0 15.1581L0 32.8423C0 34.5173 0.665412 36.1238 1.84985 37.3082C3.03429 38.4927 4.64074 39.1581 6.31579 39.1581H41.6842C43.3593 39.1581 44.9657 38.4927 46.1501 37.3082C47.3346 36.1238 48 34.5173 48 32.8423V15.1581C48 13.483 47.3346 11.8766 46.1501 10.6921C44.9657 9.5077 43.3593 8.84229 41.6842 8.84229Z" fill="#F7F7F7"/>
<path d="M18 22.4352C18 21.4804 18.0743 20.8747 19.909 19.3991C21.4283 18.1748 26.2971 14 26.2971 14V20.9682H30V30.9988H19.1568C18.8505 30.9977 18.557 30.8661 18.3404 30.6329C18.1237 30.3997 18.0013 30.0837 18 29.7537V22.4352Z" fill="#FFCF01"/>
<path d="M26.2972 20.9692V25.0071L19.4933 30.0016L28.0962 26.9857V20.9692H26.2972Z" fill="#D3AB07"/>
<path d="M23.1882 20.7605C23.5853 20.2495 24.1668 20.0692 24.4862 20.3577C24.8056 20.6462 24.7415 21.2947 24.3433 21.8051C23.945 22.3155 23.3646 22.4964 23.0452 22.2079C22.7258 21.9194 22.7905 21.274 23.1882 20.7605Z" fill="#231F20"/>
</g>
<defs>
<clipPath id="clip0">
<rect width="48" height="48" fill="white"/>
</clipPath>
</defs>
</svg>

<svg width="48" height="48" fill="none" xmlns="http://www.w3.org/2000/svg"><g clip-path="url(#clip0)"><path d="M41.684 9.474H6.316a5.684 5.684 0 00-5.684 5.684v17.684a5.684 5.684 0 005.684 5.684h35.368a5.684 5.684 0 005.684-5.684V15.158a5.684 5.684 0 00-5.684-5.684z" fill="#fff"/><path d="M41.684 10.105a5.053 5.053 0 015.053 5.053v17.684a5.053 5.053 0 01-5.053 5.053H6.316a5.052 5.052 0 01-5.053-5.053V15.158a5.053 5.053 0 015.053-5.053h35.368zm0-1.263H6.316A6.316 6.316 0 000 15.158v17.684a6.316 6.316 0 006.316 6.316h35.368A6.315 6.315 0 0048 32.842V15.158a6.316 6.316 0 00-6.316-6.316z" fill="#F7F7F7"/><path d="M18 22.435c0-.955.074-1.56 1.909-3.036C21.429 18.175 26.297 14 26.297 14v6.968H30v10.03H19.157a1.12 1.12 0 01-.817-.365 1.3 1.3 0 01-.34-.88v-7.318z" fill="#FFCF01"/><path d="M26.297 20.97v4.037l-6.804 4.995 8.603-3.016v-6.017h-1.799z" fill="#D3AB07"/><path d="M23.188 20.76c.397-.51.979-.69 1.298-.402.32.288.255.937-.143 1.447s-.978.691-1.298.403c-.32-.289-.255-.934.143-1.447z" fill="#231F20"/></g><defs><clipPath id="clip0"><path fill="#fff" d="M0 0h48v48H0z"/></clipPath></defs></svg>
